X: 388
T:Faulte d'argent
N: Derived from Jos2907-Faulte_dargent.krn
C: Josquin des Prez
%%abc-version 2.0
%%abcx-abcm2ps-target-version 5.9.1 (29 Sep 2008)
%%abc-creator hum2abc beta
%%abcx-conversion-date 2019/02/12 16:15:55
%%abc-edited-by Jesse Rodin
%%abc-edited-by Will Watson 10/09/2011
%%abcx-initial-encoding-date 2011/08/10/
%%humdrum-veritas 1864781164
%%humdrum-veritas-data 620843192
%%linebreak <none>
%%barnumbers 0
L: 1/4
M: 2/1
Q: 1/2=120
V: 1 clef=treble
V: 2 clef=treble-8
V: 3 clef=treble-8
V: 4 clef=bass
V: 5 clef=bass
K: F
[V:1] z8 | 
[V:2] z8 | 
[V:3] z2B4G2 | 
[V:4] z8 | 
[V:5] B,4G,2B,2- | 
[V:1] z8 | 
[V:2] z8 | 
[V:3] B4A3G | 
[V:4] z8 | 
[V:5] B,2A,G,F,3G, | 
[V:1] z8 | 
[V:2] z8 | 
[V:3] F2F2G2G2 | 
[V:4] z8 | 
[V:5] A,2D,2_E,4- | 
[V:1] z8 | 
[V:2] z8 | 
[V:3] G2A3GG2- | 
[V:4] z8 | 
[V:5] E,2D,2C,2B,,2 | 
[V:1] z4z2B2- | 
[V:2] z8 | 
[V:3] G2^F2G3A | 
[V:4] z8 | 
[V:5] A,,4G,,2G,2- | 
[V:1] B2G2B4 | 
[V:2] z8 | 
[V:3] B2c2d2e2 | 
[V:4] z8 | 
[V:5] G,2C,2G,4 | 
[V:1] A3GF4 | 
[V:2] f4d4 | 
[V:3] f2F3GB2 | 
[V:4] z8 | 
[V:5] F,2D,4B,,2 | 
[V:1] z2F2G2G2 | 
[V:2] f4e3d | 
[V:3] A2F2c4 | 
[V:4] z8 | 
[V:5] D,4C,3D, | 
[V:1] G2A3GG2- | 
[V:2] c4z2c2 | 
[V:3] z2c2d2e2 | 
[V:4] z8 | 
[V:5] E,2F,3G,E,2 | 
[V:1] G2^F2G4 | 
[V:2] d2d2d2e2- | 
[V:3] fedcBAG2- | 
[V:4] B,4G,4 | 
[V:5] D,4G,,2C,2 | 
[V:1] z4z2E2 | 
[V:2] edd4^c2 | 
[V:3] GFG2E4 | 
[V:4] B,4A,3G, | 
[V:5] B,,2G,,2A,,4 | 
[V:1] F2A3GFE | 
[V:2] d4z4 | 
[V:3] D8 | 
[V:4] F,4z2F,2 | 
[V:5] z4A,4 | 
[V:1] D8 | 
[V:2] z8 | 
[V:3] z2G2B2A2 | 
[V:4] G,2G,2G,2A,2- | 
[V:5] B,3A,G,2F,2 | 
[V:1] z4z2A2 | 
[V:2] z2c2d2d2 | 
[V:3] B2G2A4 | 
[V:4] A,G,G,4^F,2 | 
[V:5] _E,4D,4 | 
[V:1] B3AG2F2 | 
[V:2] d2e3dd2- | 
[V:3] G4E2F2 | 
[V:4] G,4z4 | 
[V:5] z8 | 
[V:1] E4D4- | 
[V:2] d2^c2d4 | 
[V:3] G2A2D4- | 
[V:4] z8 | 
[V:5] z8 | 
[V:1] D4z4 | 
[V:2] z8 | 
[V:3] D4z2G2 | 
[V:4] z2F,2G,2G,2 | 
[V:5] z2A,2B,3A, | 
[V:1] z8 | 
[V:2] z4z2c2 | 
[V:3] B2A2B2G2 | 
[V:4] G,2A,3G,G,2- | 
[V:5] G,2F,2_E,4 | 
[V:1] z2A2B3A | 
[V:2] d2d2d2e2- | 
[V:3] A4G4 | 
[V:4] G,2^F,2G,4 | 
[V:5] D,4z4 | 
[V:1] G2F2E4 | 
[V:2] edd4^c2 | 
[V:3] z4A4 | 
[V:4] z8 | 
[V:5] z8 | 
[V:1] D8 | 
[V:2] d8 | 
[V:3] B6A2 | 
[V:4] z4z2F,2 | 
[V:5] z4D,4 | 
[V:1] z8 | 
[V:2] z8 | 
[V:3] G2_E2G2F2 | 
[V:4] G,2G,2G,2A,2- | 
[V:5] _E,6D,2 | 
[V:1] z4z2A2 | 
[V:2] z8 | 
[V:3] _EDD4C2 | 
[V:4] A,G,G,4^F,2 | 
[V:5] C,2B,,2A,,4 | 
[V:1] B3cd4 | 
[V:2] z4z2d2 | 
[V:3] D4z2B2 | 
[V:4] G,8 | 
[V:5] G,,8 | 
[V:1] z8 | 
[V:2] e2f2g4 | 
[V:3] A2A2G4 | 
[V:4] z8 | 
[V:5] z2D,2E,3F, | 
[V:1] z8 | 
[V:2] z2d2e2f2 | 
[V:3] z2B2A2A2 | 
[V:4] z8 | 
[V:5] G,4z2D,2 | 
[V:1] z2G2G2G2 | 
[V:2] g8 | 
[V:3] G8 | 
[V:4] z4z2G,2 | 
[V:5] E,3F,G,2E,2 | 
[V:1] FED2C2G2 | 
[V:2] z8 | 
[V:3] z2d2e3f | 
[V:4] A,2B,2C4 | 
[V:5] F,2G,2C,4 | 
[V:1] E2G2FED2 | 
[V:2] z8 | 
[V:3] g4z2d2 | 
[V:4] z2G,2A,2B,2 | 
[V:5] z2E,2F,2G,2 | 
[V:1] C3DEFG2 | 
[V:2] z4z2e2 | 
[V:3] e3fg4 | 
[V:4] C8 | 
[V:5] C,8 | 
[V:1] CDEFGAB2- | 
[V:2] e3de2f2- | 
[V:3] z2c2c2d2- | 
[V:4] z8 | 
[V:5] z8 | 
[V:1] BAA4G2 | 
[V:2] fee4d2 | 
[V:3] dcA2B4 | 
[V:4] z8 | 
[V:5] z8 | 
[V:1] A6E2 | 
[V:2] e8 | 
[V:3] A8 | 
[V:4] z4z2A,2 | 
[V:5] z4A,,2A,,2- | 
[V:1] E4z4 | 
[V:2] z4z2d2 | 
[V:3] E3DE2F2 | 
[V:4] A,3G,A,2B,2- | 
[V:5] A,,G,,A,,B,,C,2D,2 | 
[V:1] z2E3D=B,2 | 
[V:2] c4=B4 | 
[V:3] E4z2E2- | 
[V:4] B,A,A,4G,2 | 
[V:5] A,,4E,4 | 
[V:1] C2D2A,2A2- | 
[V:2] A4z2d2 | 
[V:3] E2D2F3G | 
[V:4] A,8 | 
[V:5] A,,2D,3C,D,E, | 
[V:1] AGAFG4 | 
[V:2] c2f2f2e2 | 
[V:3] A2F2c3B | 
[V:4] z4z2G,2 | 
[V:5] F,4C,4 | 
[V:1] z2A3GE2 | 
[V:2] f4z2c2 | 
[V:3] A4z2A2- | 
[V:4] F,4E,4 | 
[V:5] D,4A,,4 | 
[V:1] F4G4 | 
[V:2] d2f2f2e2 | 
[V:3] A2F2c3B | 
[V:4] D,4z2G,2 | 
[V:5] z2D,2C,4 | 
[V:1] z2F3EC2 | 
[V:2] f8 | 
[V:3] A2d2c4 | 
[V:4] F,2B,2B,2A,2 | 
[V:5] D,3E,F,4 | 
[V:1] D2F2F2F2 | 
[V:2] z8 | 
[V:3] z2F4D2 | 
[V:4] B,4z2F,2 | 
[V:5] B,,2D,2D,2D,2 | 
[V:1] E2D2E4 | 
[V:2] z8 | 
[V:3] E2F3EED/E/ | 
[V:4] G,2B,2B,2A,2 | 
[V:5] C,2B,,2C,4 | 
[V:1] D8- | 
[V:2] z8 | 
[V:3] F2Bcdef2 | 
[V:4] B,8 | 
[V:5] B,,8 | 
[V:1] D8 | 
[V:2] z8 | 
[V:3] z2B4G2 | 
[V:4] z8 | 
[V:5] B,4G,2B,2- | 
[V:1] z8 | 
[V:2] z8 | 
[V:3] B4A3G | 
[V:4] z8 | 
[V:5] B,2A,G,F,3G, | 
[V:1] z8 | 
[V:2] z8 | 
[V:3] F2F2G2G2 | 
[V:4] z8 | 
[V:5] A,2D,2_E,4- | 
[V:1] z8 | 
[V:2] z8 | 
[V:3] G2A3GG2- | 
[V:4] z8 | 
[V:5] E,2D,2C,2B,,2 | 
[V:1] z4B4 | 
[V:2] z8 | 
[V:3] G2^F2G3A | 
[V:4] z8 | 
[V:5] A,,4G,,2G,2- | 
[V:1] G4B4 | 
[V:2] z8 | 
[V:3] B2c2d2e2 | 
[V:4] z8 | 
[V:5] G,2C,2G,4 | 
[V:1] A3GF4 | 
[V:2] f4d4 | 
[V:3] f2F3GB2 | 
[V:4] z8 | 
[V:5] F,2D,4B,,2 | 
[V:1] z2F2G2G2 | 
[V:2] f4e3d | 
[V:3] A2F2c4 | 
[V:4] z8 | 
[V:5] D,4C,3D, | 
[V:1] G2A3GG2- | 
[V:2] c4z2c2 | 
[V:3] z2c2d2e2 | 
[V:4] z8 | 
[V:5] E,2F,3G,E,2 | 
[V:1] G2^F2G4 | 
[V:2] d2d2d2e2- | 
[V:3] fedcBAG2- | 
[V:4] B,4G,4 | 
[V:5] D,4G,,2C,2 | 
[V:1] z4z2E2 | 
[V:2] edd4^c2 | 
[V:3] GFG2E4 | 
[V:4] B,4A,3G, | 
[V:5] B,,2G,,2A,,4 | 
[V:1] F2A3GFE | 
[V:2] d4z4 | 
[V:3] D8 | 
[V:4] F,4z2F,2 | 
[V:5] z4A,4 | 
[V:1] D8 | 
[V:2] z8 | 
[V:3] z2G2B2A2 | 
[V:4] G,2G,2G,2A,2- | 
[V:5] B,3A,G,2F,2 | 
[V:1] z4z2A2 | 
[V:2] z2c2d2d2 | 
[V:3] B2G2A4 | 
[V:4] A,G,G,4^F,2 | 
[V:5] _E,4D,4 | 
[V:1] B3AG2F2 | 
[V:2] d2e3dd2- | 
[V:3] G4E2F2 | 
[V:4] G,4z4 | 
[V:5] z8 | 
[V:1] E4D4- | 
[V:2] d2^c2d4 | 
[V:3] G2A2D4- | 
[V:4] z8 | 
[V:5] z8 | 
[V:1] D4z4 | 
[V:2] z8 | 
[V:3] D4z2G2 | 
[V:4] z2F,2G,2G,2 | 
[V:5] z2A,2B,3A, | 
[V:1] z8 | 
[V:2] z4z2c2 | 
[V:3] B2A2B2G2 | 
[V:4] G,2A,3G,G,2- | 
[V:5] G,2F,2_E,4 | 
[V:1] z2A2B3A | 
[V:2] d2d2d2e2- | 
[V:3] A4G4 | 
[V:4] G,2^F,2G,4 | 
[V:5] D,4z4 | 
[V:1] G2F2E4 | 
[V:2] edd4^c2 | 
[V:3] z4A4 | 
[V:4] z8 | 
[V:5] z8 | 
[V:1] D8 | 
[V:2] d4z2d2 | 
[V:3] B2G2A2D2- | 
[V:4] z4z2F,2 | 
[V:5] z4D,4 | 
[V:1] z8 | 
[V:2] =B2e3dc=B | 
[V:3] D2C2G2E2 | 
[V:4] G,2G,2G,2A,2- | 
[V:5] G,,2C,3B,,C,2 | 
[V:1] z4z2D2 | 
[V:2] A2=B4A2 | 
[V:3] F2G2D4 | 
[V:4] A,G,G,4^F,2 | 
[V:5] D,2G,,2D,4 | 
[V:1] E2G3FD2 | 
[V:2] c3d=B4 | 
[V:3] z2G3A=B2 | 
[V:4] G,6G,2 | 
[V:5] C,3=B,,G,,2G,,2 | 
[V:1] C3DE2F2- | 
[V:2] A8- | 
[V:3] cAc3=BAG | 
[V:4] E,2A,3G,F,E, | 
[V:5] A,,3=B,,C,2D,2- | 
[V:1] F2CDE2F2- | 
[V:2] A8- | 
[V:3] F2c=BAGFE | 
[V:4] D,2E,4D,2 | 
[V:5] D,2A,,=B,,C,2D,2- | 
[V:1] FED4^C2 | 
[V:2] A8- | 
[V:3] D4E4 | 
[V:4] F,3G,E,4 | 
[V:5] D,C,D,2A,,4 | 
[V:1] D8- | 
[V:2] A8- | 
[V:3] F6D2 | 
[V:4] D,8- | 
[V:5] D,8- | 
[V:1] D8 |]  
[V:2] A8 |]  
[V:3] D8 |]  
[V:4] D,8 |]  
[V:5] D,8 |]  



